**kern	**silbe	**kern	**silbe	**kern	**silbe	**harmony	**phrase	**leadinstrument	**rhyme	**timestamp	**harte
*ICvox	*	*ICvox	*	*ICvox	*	*M4/4	*	*	*	*	*M4/4
*VRlead	*	*VRharmonize	*	*VRharmonize	*	*	*	*	*	*	*
*Hstimme	*	*Nstimme	*	*Nstimme	*	*	*	*	*	*	*
*F:	*	*F:	*	*F:	*	*F:	*	*	*	*	*F:
*M4/4	*	*M4/4	*	*M4/4	*	*	*	*	*	*	*
*clefG2	*	*clefG2	*	*clefG2	*	*	*	*	*	*	*
r;	.	r;	.	r;	.	1r;	.	r	.	0	N.C.
=1	=1	=1	=1	=1	=1	=1	=1	=1	=1	=1	=1
*>Letter>A	*>Letter>A	*>Letter>A	*>Letter>A	*>Letter>A	*>Letter>A	*>Letter>A	*>Letter>A	*>Letter>A	*>Letter>A	*>Letter>A	*>Letter>A
*>Label>Intro	*>Label>Intro	*>Label>Intro	*>Label>Intro	*>Label>Intro	*>Label>Intro	*>Label>Intro	*>Label>Intro	*>Label>Intro	*>Label>Intro	*>Label>Intro	*>Label>Intro
1r	.	1r	.	1r	.	1N	newline	drums	.	0.395	N.C.
=2	=2	=2	=2	=2	=2	=2	=2	=2	=2	=2	=2
1r	.	1r	.	1r	.	1FM	.	drums	.	2.835	F:maj
=3	=3	=3	=3	=3	=3	=3	=3	=3	=3	=3	=3
1r	.	1r	.	1r	.	4.FM	newline	keyboard	.	5.275	F:maj
.	.	.	.	.	.	2CM	.	keyboard	.	6.508	C:maj/4
.	.	.	.	.	.	8B-M	.	keyboard	.	.	B-:maj/5
=4	=4	=4	=4	=4	=4	=4	=4	=4	=4	=4	=4
1r	.	1r	.	1r	.	2.B-M	.	keyboard	.	7.741	B-:maj/5
.	.	.	.	.	.	4CM	.	keyboard	.	9.591	C:maj/4
=5	=5	=5	=5	=5	=5	=5	=5	=5	=5	=5	=5
1r	.	1r	.	1r	.	4.FM	.	keyboard	.	10.208	F:maj
.	.	.	.	.	.	2CM	.	keyboard	.	11.441	C:maj/4
.	.	.	.	.	.	8B-M	.	keyboard	.	.	B-:maj/5
=6	=6	=6	=6	=6	=6	=6	=6	=6	=6	=6	=6
1r	.	1r	.	1r	.	1B-M	.	keyboard	.	12.674	B-:maj/5
=7	=7	=7	=7	=7	=7	=7	=7	=7	=7	=7	=7
*>Letter>B	*>Letter>B	*>Letter>B	*>Letter>B	*>Letter>B	*>Letter>B	*>Letter>B	*>Letter>B	*>Letter>B	*>Letter>B	*>Letter>B	*>Letter>B
*>Label>Verse	*>Label>Verse	*>Label>Verse	*>Label>Verse	*>Label>Verse	*>Label>Verse	*>Label>Verse	*>Label>Verse	*>Label>Verse	*>Label>Verse	*>Label>Verse	*>Label>Verse
8cq	_	.	.	.	.	.	.	.	.	.	.
8d	_	1r	.	1r	.	4.FM	newline	voice	.	15.14	F:maj
8f	know	.	.	.	.	.	.	.	.	.	.
8f	this	.	.	.	.	.	.	.	.	.	.
8d	pain	.	.	.	.	2CM	.	voice	A	.	C:maj/4
8c	.	.	.	.	.	.	.	.	.	.	.
8r	.	.	.	.	.	.	.	.	.	.	.
4r	.	.	.	.	.	.	.	.	.	.	.
.	.	.	.	.	.	8B-M	.	voice	.	.	B-:maj/5
=8	=8	=8	=8	=8	=8	=8	=8	=8	=8	=8	=8
2r	.	2r	.	1r	.	2.B-M	.	voice	.	17.604	B-:maj/5
8r	.	8r	.	.	.	.	.	.	.	.	.
8cc	why	8f 8a	why	.	.	.	.	.	.	.	.
8cc	do	8f 8a	do	.	.	4CM	.	voice	.	.	C:maj/4
8cc	you	8f 8a	you	.	.	.	.	.	.	.	.
=9	=9	=9	=9	=9	=9	=9	=9	=9	=9	=9	=9
8cc	lock	8f 8a	lock	1r	.	8%5Dm	.	voice	.	20.068	D:min
8a	your-	8d 8f	your-	.	.	.	.	.	.	.	.
8a	-self	8d 8f	-self	.	.	.	.	.	.	.	.
8a	up	8d 8f	up	.	.	.	.	.	.	.	.
8f	in	8A 8c	in	.	.	.	.	.	.	.	.
4f	these	4A 4c	these	.	.	4FM	.	voice	.	21.916	F:maj/3
[8f	chains	[8B- [8d	chains	.	.	8B-M	.	voice	A	.	B-:maj
=10	=10	=10	=10	=10	=10	=10	=10	=10	=10	=10	=10
8f]	_	8B-] 8d]	_	1r	.	2B-M	.	voice	.	22.532	B-:maj
8r	.	8r	.	.	.	.	.	.	.	.	.
4r	.	4r	.	.	.	.	.	.	.	.	.
2r	.	2r	.	.	.	2CM	.	voice	.	23.764	C:sus4
=11	=11	=11	=11	=11	=11	=11	=11	=11	=11	=11	=11
8cq	_	.	.	.	.	.	.	.	.	.	.
8d	_	1r	.	1r	.	4.FM	newline	voice	.	24.996	F:maj
8f	one	.	.	.	.	.	.	.	.	.	.
8f	can	.	.	.	.	.	.	.	.	.	.
8cq	_	.	.	.	.	.	.	.	.	.	.
[8d	change	.	.	.	.	2CM	.	voice	A	26.225	C:maj/4
16d]	_	.	.	.	.	.	.	.	.	.	.
16f	your	.	.	.	.	.	.	.	.	.	.
8f	life	.	.	.	.	.	.	.	.	.	.
8d	ex	.	.	.	.	.	.	.	.	.	.
8cq	_	.	.	.	.	.	.	.	.	.	.
[8d	cept	.	.	.	.	8B-M	.	voice	.	.	B-:maj/5
=12	=12	=12	=12	=12	=12	=12	=12	=12	=12	=12	=12
16d]	_	1r	.	1r	.	2.B-M	.	voice	.	27.453	B-:maj/5
16c	for	.	.	.	.	.	.	.	.	.	.
8c	you.	.	.	.	.	.	.	.	.	.	.
4r	.	.	.	.	.	.	.	.	.	.	.
4r	.	.	.	.	.	.	.	.	.	.	.
8r	.	.	.	.	.	4CM	.	voice	.	29.296	C:maj/4
8c	Don't	.	.	.	.	.	.	.	.	.	.
=13	=13	=13	=13	=13	=13	=13	=13	=13	=13	=13	=13
8a	e-	1r	.	1r	.	4.FM	.	voice	.	29.911	F:maj
8a	-ver	.	.	.	.	.	.	.	.	.	.
8a	let	.	.	.	.	.	.	.	.	.	.
8a	a-	.	.	.	.	2CM	.	voice	.	31.139	C:maj/4
8a	-ny-	.	.	.	.	.	.	.	.	.	.
8a	-one	.	.	.	.	.	.	.	.	.	.
8a	step	.	.	.	.	.	.	.	.	.	.
8a	all	.	.	.	.	8B-M	.	voice	.	.	B-:maj/5
=14	=14	=14	=14	=14	=14	=14	=14	=14	=14	=14	=14
8cc	o-	1r	.	1r	.	2.B-M	.	voice	.	32.368	B-:maj/5
16f	-ver	.	.	.	.	.	.	.	.	.	.
[16f	you	.	.	.	.	.	.	.	.	.	.
8f]	_	.	.	.	.	.	.	.	.	.	.
8cq	_	.	.	.	.	.	.	.	.	.	.
8d	_	.	.	.	.	.	.	.	.	.	.
4r	.	.	.	.	.	.	.	.	.	.	.
8r	.	.	.	.	.	4CM	.	voice	.	34.211	C:maj/4
8c	Just	.	.	.	.	.	.	.	.	.	.
=15	=15	=15	=15	=15	=15	=15	=15	=15	=15	=15	=15
8a	o-	1r	.	1r	.	4.FM	newline	voice	.	34.825	F:maj
8c	-pen	.	.	.	.	.	.	.	.	.	.
8c	your	.	.	.	.	.	.	.	.	.	.
8g	heart	.	.	.	.	2CM	.	voice	.	36.043	C:maj/4
8r	.	.	.	.	.	.	.	.	.	.	.
8g	and	.	.	.	.	.	.	.	.	.	.
8a	your	.	.	.	.	.	.	.	.	.	.
8fq	_	.	.	.	.	.	.	.	.	.	.
8g	mind	.	.	.	.	8B-M	.	voice	B	.	B-:maj/5
=16	=16	=16	=16	=16	=16	=16	=16	=16	=16	=16	=16
*	*	*clefF4	*	*	*	*	*	*	*	*	*
8f	_	1r	.	1r	.	2.B-M	.	voice	.	37.26	B-:maj/5
8d	_	.	.	.	.	.	.	.	.	.	.
4r	.	.	.	.	.	.	.	.	.	.	.
8r	.	.	.	.	.	.	.	.	.	.	.
[8f	Mmm	.	.	.	.	.	.	.	.	.	.
16f]	_	.	.	.	.	4CM	.	voice	.	39.087	C:maj/4
8c	_	.	.	.	.	.	.	.	.	.	.
16r	.	.	.	.	.	.	.	.	.	.	.
=17	=17	=17	=17	=17	=17	=17	=17	=17	=17	=17	=17
*clefF4	*	*	*	*	*	*	*	*	*	*	*
8r	.	8r	.	1r	.	8%5Dm	.	voice	.	39.696	D:min
16d 16f	Is	16A	Is	.	.	.	.	.	.	.	.
16d 16f	it	16A	it	.	.	.	.	.	.	.	.
16f 16a	real-	16c	real-	.	.	.	.	.	.	.	.
16d 16f	-ly	16A	-ly	.	.	.	.	.	.	.	.
8f 8a	fair	8c	fair	.	.	.	.	.	.	.	.
8cq 8fq	_	.	.	.	.	.	.	.	.	.	.
8d 8g	_	8B-	_	.	.	.	.	.	.	.	.
8c 8f	_	8G	_	.	.	4FM	.	voice	.	41.522	F:maj/3
8A	to	8r	.	.	.	.	.	.	.	.	.
8f 8b-	feel	8D	feel	.	.	8B-M	.	voice	.	.	B-:maj
=18	=18	=18	=18	=18	=18	=18	=18	=18	=18	=18	=18
2r	.	2r	.	1r	.	1B-M	.	voice	.	42.131	B-:maj
8d 8g	this	8B-	this	.	.	.	.	.	.	.	.
8c 8f	way	8A	way	.	.	.	.	.	.	.	.
8A 8~d	in	8F	in	.	.	.	.	.	.	.	.
8Aq	_	8Cq	_	.	.	.	.	.	.	.	.
8B- 8d	side	8D	side	.	.	.	.	.	B	.	.
=19	=19	=19	=19	=19	=19	=19	=19	=19	=19	=19	=19
4c 4e	_	4G	_	1r	.	1CM	.	voice	.	44.566	C:maj
4r	.	4r	.	.	.	.	.	.	.	.	.
8r	.	2r	.	.	.	.	.	.	.	.	.
8g	Oh	.	.	.	.	.	.	.	.	.	.
8f	_	.	.	.	.	.	.	.	.	.	.
8d	_	.	.	.	.	.	.	.	.	.	.
=20	=20	=20	=20	=20	=20	=20	=20	=20	=20	=20	=20
*>Letter>C	*>Letter>C	*>Letter>C	*>Letter>C	*>Letter>C	*>Letter>C	*>Letter>C	*>Letter>C	*>Letter>C	*>Letter>C	*>Letter>C	*>Letter>C
*>Label>Chorus	*>Label>Chorus	*>Label>Chorus	*>Label>Chorus	*>Label>Chorus	*>Label>Chorus	*>Label>Chorus	*>Label>Chorus	*>Label>Chorus	*>Label>Chorus	*>Label>Chorus	*>Label>Chorus
8r	.	8r	.	1r	.	4.FM	newline	voice	.	47.002	F:maj
8d	Some	8A	Some	.	.	.	.	.	.	.	.
8f	day	8c	day	.	.	.	.	.	.	.	.
8d	some-	8B-	some-	.	.	8%5B-M	.	voice	.	48.238	B-:maj/5
16f	-bo-	16c	-bo-	.	.	.	.	.	.	.	.
16f	-dy's	16c	-dy's	.	.	.	.	.	.	.	.
16d	gon-	16B-	gon-	.	.	.	.	.	.	.	.
16d	-na	16B-	-na	.	.	.	.	.	.	.	.
16f	make	16c	make	.	.	.	.	.	.	.	.
16f	you	16c	you	.	.	.	.	.	.	.	.
16f	wan-	16c	wan-	.	.	.	.	.	.	.	.
16d	-na	16A	-na	.	.	.	.	.	.	.	.
=21	=21	=21	=21	=21	=21	=21	=21	=21	=21	=21	=21
16f	turn	16c	turn	1r	.	4.CM	.	voice	.	49.475	C:maj/4
16f	a-	16c	a-	.	.	.	.	.	.	.	.
16f	-round	16c	-round	.	.	.	.	.	C	.	.
16d	and	16A	and	.	.	.	.	.	.	.	.
8f	say	8c	say	.	.	.	.	.	A	.	.
16d	good-	16A	good-	.	.	8%5FM	.	voice	.	50.712	F:maj
[16a [16cc	-bye	[16f	-bye	.	.	.	.	.	B	.	.
8a] 8cc]	_	8f]	_	.	.	.	.	.	.	.	.
8gq 8b-q	_	8eq	_	.	.	.	.	.	.	.	.
8a 8cc	_	8f	_	.	.	.	.	.	.	.	.
4r	.	4r	.	.	.	.	.	.	.	.	.
=22	=22	=22	=22	=22	=22	=22	=22	=22	=22	=22	=22
*	*	*clefG2	*	*	*	*	*	*	*	*	*
8r	.	8r	.	1r	.	4.FM	.	voice	.	51.949	F:maj
8cc 8ff	'Till	8a	'Till	.	.	.	.	.	.	.	.
8cc 8ff	then,	8a	then,	.	.	.	.	.	.	.	.
8f 8a	ba-	16c	ba-	.	.	8%5B-M	.	voice	.	53.186	B-:maj/5
.	.	16d	_	.	.	.	.	.	.	.	.
*	*	*clefF4	*	*	*	*	*	*	*	*	*
8f 8b-	-by,	8d	-by,	.	.	.	.	.	.	.	.
16c	are	16F	are	.	.	.	.	.	.	.	.
16c	you	16G	you	.	.	.	.	.	.	.	.
16c	gon-	16A	gon-	.	.	.	.	.	.	.	.
16c	-na	16A	-na	.	.	.	.	.	.	.	.
16c	let	16A	let	.	.	.	.	.	.	.	.
16A	'em	16F	'em	.	.	.	.	.	.	.	.
=23	=23	=23	=23	=23	=23	=23	=23	=23	=23	=23	=23
16d	hold	16A	hold	1r	.	4.CM	.	voice	.	54.423	C:maj/4
16A	you	16A	you	.	.	.	.	.	.	.	.
16c	down	16A	down	.	.	.	.	.	C	.	.
16A	and	16F	and	.	.	.	.	.	.	.	.
8c	make	8A	make	.	.	.	.	.	A	.	.
16A	you	16F	you	.	.	8%5FM	.	voice	.	55.66	F:maj
16c	cry	16A	cry	.	.	.	.	.	B	.	.
8A	_	8F	_	.	.	.	.	.	.	.	.
8r	.	8r	.	.	.	.	.	.	.	.	.
16c	Don't	4r	.	.	.	.	.	.	.	.	.
16d	you	.	.	.	.	.	.	.	.	.	.
8f	know	.	.	.	.	.	.	.	.	.	.
=24	=24	=24	=24	=24	=24	=24	=24	=24	=24	=24	=24
8r	.	8r	.	1r	.	4.FM	newline	voice	.	56.897	F:maj
16f 16a	don't	16c	don't	.	.	.	.	.	.	.	.
16g 16b-	you	16d	you	.	.	.	.	.	.	.	.
16g 16b-	know	16d	know	.	.	.	.	.	.	.	.
16a 16cc	_	16f	_	.	.	.	.	.	.	.	.
8r	.	8r	.	.	.	8%5B-M	.	voice	.	58.115	B-:maj/5
16f 16a	things	16c	things	.	.	.	.	.	.	.	.
16g 16b-	'll	16d	'll	.	.	.	.	.	.	.	.
16g 16b-	change	16d	change	.	.	.	.	.	A	.	.
16a 16cc	_	16f	_	.	.	.	.	.	.	.	.
4r	.	4r	.	.	.	.	.	.	.	.	.
=25	=25	=25	=25	=25	=25	=25	=25	=25	=25	=25	=25
16f 16a	things	16c	things	1r	.	4.CM	.	voice	.	59.333	C:maj/4
16g 16b-	'll	16d	'll	.	.	.	.	.	.	.	.
16a 16cc	go	16f	go	.	.	.	.	.	.	.	.
16a 16cc	y-	16f	y-	.	.	.	.	.	.	.	.
8a 8cc	-your	8f	-your	.	.	.	.	.	.	.	.
8a 8cc	way	8f	way	.	.	8%5FM	.	voice	A	60.551	F:maj
8r	.	2r	.	.	.	.	.	.	.	.	.
16f	Can	.	.	.	.	.	.	.	.	.	.
16f	you	.	.	.	.	.	.	.	.	.	.
8b-q	_	.	.	.	.	.	.	.	.	.	.
[4cc	hold	.	.	.	.	.	.	.	.	.	.
=26	=26	=26	=26	=26	=26	=26	=26	=26	=26	=26	=26
8cc]	_	1r	.	1r	.	4.B-M	.	voice	.	61.769	B-:maj
8f	_	.	.	.	.	.	.	.	.	.	.
8f	_	.	.	.	.	.	.	.	.	.	.
8f	on	.	.	.	.	2FM	.	voice	.	62.987	F:maj/3
8c	_	.	.	.	.	.	.	.	.	.	.
8r	.	.	.	.	.	.	.	.	.	.	.
8f	for	.	.	.	.	.	.	.	.	.	.
8f	one	.	.	.	.	8Gmm	.	voice	.	.	G:min7
=27	=27	=27	=27	=27	=27	=27	=27	=27	=27	=27	=27
*	*	*clefG2	*	*	*	*	*	*	*	*	*
8f	more	2r	.	1r	.	2Gmm	.	voice	.	64.206	G:min7
8cq	_	.	.	.	.	.	.	.	.	.	.
8d	day	.	.	.	.	.	.	.	A	.	.
4c	_	.	.	.	.	.	.	.	.	.	.
8r	.	8r	.	.	.	2CM	.	voice	.	65.424	C:sus4
16c	Can	16c	Can	.	.	.	.	.	.	.	.
16c	you	16c	you	.	.	.	.	.	.	.	.
[4g	hold	[4b-	hold	.	.	.	.	.	.	.	.
=28	=28	=28	=28	=28	=28	=28	=28	=28	=28	=28	=28
8g]	_	8b-]	_	1r	.	4.B-M	newline	voice	.	66.642	B-:maj
24g	_	24b-	_	.	.	.	.	.	.	.	.
24a-	_	24cc	_	.	.	.	.	.	.	.	.
[24g	_	24b-	_	.	.	.	.	.	.	.	.
8g]	_	8a	_	.	.	.	.	.	.	.	.
8f	on	8a	on	.	.	8%5FM	.	voice	.	67.871	F:maj/3
8cq	_	8fq	_	.	.	.	.	.	.	.	.
8d	_	8g	_	.	.	.	.	.	.	.	.
8c	_	8f	_	.	.	.	.	.	.	.	.
8c	for	8f	for	.	.	.	.	.	.	.	.
8c	one	8f	one	.	.	.	.	.	.	.	.
=29	=29	=29	=29	=29	=29	=29	=29	=29	=29	=29	=29
8f	more	8b-	more	1r	.	1Gmm	.	voice	.	69.101	G:min7
4f	day	4b-	day	.	.	.	.	.	A	.	.
8r	.	8r	.	.	.	.	.	.	.	.	.
8f	Things	2r	.	.	.	.	.	.	.	.	.
16d	'll	.	.	.	.	.	.	.	.	.	.
[16f	go	.	.	.	.	.	.	.	.	.	.
16f]	_	.	.	.	.	.	.	.	.	.	.
16f	your	.	.	.	.	.	.	.	.	.	.
8d	way	.	.	.	.	.	.	.	A	.	.
=30	=30	=30	=30	=30	=30	=30	=30	=30	=30	=30	=30
[2c	_	1r	.	1r	.	1CM	.	voice	.	71.56	C:sus4(b7)
8c]	_	.	.	.	.	.	.	.	.	.	.
8d	_	.	.	.	.	.	.	.	.	.	.
4r	.	.	.	.	.	.	.	.	.	.	.
=31	=31	=31	=31	=31	=31	=31	=31	=31	=31	=31	=31
8r	.	8r	.	1r	.	1CM	.	voice	.	74.019	C:maj
8aq	_	8fq	_	.	.	.	.	.	.	.	.
8b-	_	8g	_	.	.	.	.	.	.	.	.
8a	on	8f	on	.	.	.	.	.	.	.	.
8f	for	8c	for	.	.	.	.	.	.	.	.
8f	one	8c	one	.	.	.	.	.	.	.	.
8c	more	8A	more	.	.	.	.	.	.	.	.
8dq	_	8B-q	_	.	.	.	.	.	.	.	.
8f	day	8c	day	.	.	.	.	.	A	.	.
8r	.	8r	.	.	.	.	.	.	.	.	.
=32	=32	=32	=32	=32	=32	=32	=32	=32	=32	=32	=32
*>Letter>D	*>Letter>D	*>Letter>D	*>Letter>D	*>Letter>D	*>Letter>D	*>Letter>D	*>Letter>D	*>Letter>D	*>Letter>D	*>Letter>D	*>Letter>D
*>Label>Interlude	*>Label>Interlude	*>Label>Interlude	*>Label>Interlude	*>Label>Interlude	*>Label>Interlude	*>Label>Interlude	*>Label>Interlude	*>Label>Interlude	*>Label>Interlude	*>Label>Interlude	*>Label>Interlude
1r	.	1r	.	1r	.	4.FM	newline	guitar	.	76.478	F:maj
.	.	.	.	.	.	2CM	.	guitar	.	77.704	C:maj/4
.	.	.	.	.	.	8B-M	.	guitar	.	.	B-:maj/5
=33	=33	=33	=33	=33	=33	=33	=33	=33	=33	=33	=33
1r	.	1r	.	1r	.	2.B-M	.	guitar	.	78.929	B-:maj/5
.	.	.	.	.	.	4CM	.	guitar	.	80.767	C:maj/4
=34	=34	=34	=34	=34	=34	=34	=34	=34	=34	=34	=34
1r	.	1r	.	1r	.	4.FM	.	guitar	.	81.379	F:maj
.	.	.	.	.	.	2CM	.	guitar	.	82.605	C:maj/4
.	.	.	.	.	.	8B-M	.	guitar	.	.	B-:maj/5
=35	=35	=35	=35	=35	=35	=35	=35	=35	=35	=35	=35
1r	.	1r	.	1r	.	2.B-M	.	guitar	.	83.83	B-:maj/5
.	.	.	.	.	.	4CM	.	guitar	.	85.668	C:maj/4
=36	=36	=36	=36	=36	=36	=36	=36	=36	=36	=36	=36
*>Letter>B	*>Letter>B	*>Letter>B	*>Letter>B	*>Letter>B	*>Letter>B	*>Letter>B	*>Letter>B	*>Letter>B	*>Letter>B	*>Letter>B	*>Letter>B
*>Label>Verse	*>Label>Verse	*>Label>Verse	*>Label>Verse	*>Label>Verse	*>Label>Verse	*>Label>Verse	*>Label>Verse	*>Label>Verse	*>Label>Verse	*>Label>Verse	*>Label>Verse
8a	You	8c	_	1r	.	4.FM	newline	voice	.	86.28	F:maj
8f	could	8~A	_	.	.	.	.	.	.	.	.
8~f	sus-	8~A	_	.	.	.	.	.	.	.	.
.	.	8B-q	_	.	.	.	.	.	.	.	.
8f	-stain	8c	_	.	.	2CM	.	voice	A	87.517	C:maj/4
2r	.	2r	.	.	.	.	.	.	.	.	.
.	.	.	.	.	.	8B-M	.	voice	.	.	B-:maj/5
=37	=37	=37	=37	=37	=37	=37	=37	=37	=37	=37	=37
4r	.	4r	.	1r	.	2.B-M	.	voice	.	88.753	B-:maj/5
8r	.	8r	.	.	.	.	.	.	.	.	.
[8a	mmm,	[8d	_	.	.	.	.	.	.	.	.
8a]	_	8d]	_	.	.	.	.	.	.	.	.
8a	or	8d	_	.	.	.	.	.	.	.	.
8a	are	8d	_	.	.	4Am	.	voice	.	90.608	A:min/5
8a	you	8d	_	.	.	.	.	.	.	.	.
=38	=38	=38	=38	=38	=38	=38	=38	=38	=38	=38	=38
8a	comf-	8d	_	1r	.	2..Dm	.	voice	.	91.226	D:min
8f	-ta-	8A	_	.	.	.	.	.	.	.	.
8f	-ble	8A	_	.	.	.	.	.	.	.	.
8f	with	8A	_	.	.	.	.	.	.	.	.
8e	the	8~A	_	.	.	.	.	.	.	.	.
8eq	_	8Aq	_	.	.	.	.	.	.	.	.
4f	pain	4B-	_	.	.	.	.	.	A	.	.
8r	.	8r	.	.	.	8B-M	.	voice	.	93.699	B-:maj
=39	=39	=39	=39	=39	=39	=39	=39	=39	=39	=39	=39
2r	.	1r	.	1r	.	2B-M	.	voice	.	94.935	B-:maj
4r	.	.	.	.	.	2CM	.	voice	.	.	C:sus4(b7)
8c	You've	.	.	.	.	.	.	.	.	.	.
8c	got	.	.	.	.	.	.	.	.	.	.
=40	=40	=40	=40	=40	=40	=40	=40	=40	=40	=40	=40
8cq	_	.	.	.	.	.	.	.	.	.	.
8d	no	1r	.	1r	.	4.FM	newline	voice	.	96.171	F:maj
8f	one	.	.	.	.	.	.	.	.	.	.
8f	to	.	.	.	.	.	.	.	.	.	.
8cq	_	.	.	.	.	.	.	.	.	.	.
[8d	blame	.	.	.	.	2CM	.	voice	A	97.396	C:maj/4
16d]	_	.	.	.	.	.	.	.	.	.	.
16f	for	.	.	.	.	.	.	.	.	.	.
8f	this	.	.	.	.	.	.	.	.	.	.
8f	un-	.	.	.	.	.	.	.	.	.	.
8cq	_	.	.	.	.	.	.	.	.	.	.
[8d	-ha	.	.	.	.	8B-M	.	voice	.	.	B-:maj/5
=41	=41	=41	=41	=41	=41	=41	=41	=41	=41	=41	=41
16d]	_	2r	.	1r	.	2.B-M	.	voice	.	98.62	B-:maj/5
16c	pi-	.	.	.	.	.	.	.	.	.	.
[8c	-ness	.	.	.	.	.	.	.	D	.	.
8c]	_	.	.	.	.	.	.	.	.	.	.
8r	.	.	.	.	.	.	.	.	.	.	.
2r	.	8r	.	.	.	.	.	.	.	.	.
.	.	8cc	No,	.	.	.	.	.	.	.	.
.	.	8g	ba-	.	.	4CM	.	voice	.	100.456	C:maj/4
.	.	[8f	-by	.	.	.	.	.	.	.	.
=42	=42	=42	=42	=42	=42	=42	=42	=42	=42	=42	=42
8a	You	4.f]	_	1r	.	4.FM	.	voice	.	101.069	F:maj
8a	got	.	.	.	.	.	.	.	.	.	.
8a	your-	.	.	.	.	.	.	.	.	.	.
8a	-self	8r	.	.	.	2CM	.	voice	.	102.293	C:maj/4
8a	in-	4r	.	.	.	.	.	.	.	.	.
8a	-to	.	.	.	.	.	.	.	.	.	.
8a	your	4r	.	.	.	.	.	.	.	.	.
8cc	own	.	.	.	.	8B-M	.	voice	.	.	B-:maj/5
=43	=43	=43	=43	=43	=43	=43	=43	=43	=43	=43	=43
8f	mess	4r	.	1r	.	2.B-M	.	voice	D	103.517	B-:maj/5
8r	.	.	.	.	.	.	.	.	.	.	.
4r	.	8r	.	.	.	.	.	.	.	.	.
.	.	[8a	Ooh	.	.	.	.	.	.	.	.
2r	.	16a]	_	.	.	.	.	.	.	.	.
.	.	16g	_	.	.	.	.	.	.	.	.
.	.	[8f	_	.	.	.	.	.	.	.	.
.	.	16f]	_	.	.	4CM	.	voice	.	105.354	C:maj/4
.	.	16d	_	.	.	.	.	.	.	.	.
.	.	[8c	_	.	.	.	.	.	.	.	.
=44	=44	=44	=44	=44	=44	=44	=44	=44	=44	=44	=44
8a	Let-	4c]	_	1r	.	4.FM	newline	voice	.	105.966	F:maj
8c	-tin'	.	.	.	.	.	.	.	.	.	.
8c	your	4r	.	.	.	.	.	.	.	.	.
8g	wor-	.	.	.	.	2CM	.	voice	.	107.19	C:maj/4
8fq	_	.	.	.	.	.	.	.	.	.	.
8g	-ries	2r	.	.	.	.	.	.	.	.	.
8g	pass	.	.	.	.	.	.	.	.	.	.
8a	you	.	.	.	.	.	.	.	.	.	.
8fq	_	.	.	.	.	.	.	.	.	.	.
8g	by	.	.	.	.	8B-M	.	voice	B	.	B-:maj/5
=45	=45	=45	=45	=45	=45	=45	=45	=45	=45	=45	=45
8f	_	8a	Let-	1r	.	2.B-M	.	voice	.	108.414	B-:maj/5
8d	_	8c	-tin'	.	.	.	.	.	.	.	.
8r	.	8c	your	.	.	.	.	.	.	.	.
8f	Huh!	8g	wor	.	.	.	.	.	.	.	.
.	.	8fq	_	.	.	.	.	.	.	.	.
8r	.	8g	ries	.	.	.	.	.	.	.	.
[8f	ba	8g	pass	.	.	.	.	.	.	.	.
8f]	_	8a	you	.	.	4Am	.	voice	.	110.25	A:min/5
.	.	8fq	_	.	.	.	.	.	.	.	.
8d	by	8g	by!	.	.	.	.	.	.	.	.
=46	=46	=46	=46	=46	=46	=46	=46	=46	=46	=46	=46
8r	.	4f	_	1r	.	8%5Dm	.	voice	.	110.863	D:min
8f	Don't	.	.	.	.	.	.	.	.	.	.
8d	you	4r	.	.	.	.	.	.	.	.	.
8f	think	.	.	.	.	.	.	.	.	.	.
8d	it's	4r	.	.	.	.	.	.	.	.	.
8f	worth	.	.	.	.	4FM	.	voice	.	112.699	F:maj/3
8d	your	8r	.	.	.	.	.	.	.	.	.
8f	time	8b-	time	.	.	8B-M	.	voice	B	.	B-:maj
=47	=47	=47	=47	=47	=47	=47	=47	=47	=47	=47	=47
*clefF4	*	*	*	*	*	*	*	*	*	*	*
8eq	_	8aq	_	.	.	.	.	.	.	.	.
8f	_	8b-	_	1r	.	1B-M	.	voice	.	113.311	B-:maj
*	*	*clefF4	*	*	*	*	*	*	*	*	*
16r	.	16r	.	.	.	.	.	.	.	.	.
16A	to	16A	to	.	.	.	.	.	.	.	.
8cq	_	8Aq	_	.	.	.	.	.	.	.	.
8d	change	8B-	change	.	.	.	.	.	A	.	.
8c	_	8A	_	.	.	.	.	.	.	.	.
8c	your	8F	your	.	.	.	.	.	.	.	.
8Aq	_	8Fq	_	.	.	.	.	.	.	.	.
8B-	mind	8F	mind	.	.	.	.	.	B	.	.
4r	.	4r	.	.	.	.	.	.	.	.	.
=48	=48	=48	=48	=48	=48	=48	=48	=48	=48	=48	=48
4c	_	4G	_	1r	.	1CM	.	voice	.	115.759	C:sus4(b7)
*clefG2	*	*	*	*	*	*	*	*	*	*	*
8r	.	8r	.	.	.	.	.	.	.	.	.
8dd	No,	8r	.	.	.	.	.	.	.	.	.
8cc	_	2r	.	.	.	.	.	.	.	.	.
8g	n-	.	.	.	.	.	.	.	.	.	.
8g	-no!	.	.	.	.	.	.	.	.	.	.
8f	_	.	.	.	.	.	.	.	.	.	.
=49	=49	=49	=49	=49	=49	=49	=49	=49	=49	=49	=49
*>Letter>C	*>Letter>C	*>Letter>C	*>Letter>C	*>Letter>C	*>Letter>C	*>Letter>C	*>Letter>C	*>Letter>C	*>Letter>C	*>Letter>C	*>Letter>C
*>Label>Chorus	*>Label>Chorus	*>Label>Chorus	*>Label>Chorus	*>Label>Chorus	*>Label>Chorus	*>Label>Chorus	*>Label>Chorus	*>Label>Chorus	*>Label>Chorus	*>Label>Chorus	*>Label>Chorus
8r	.	8r	.	1r	.	4.FM	newline	voice	.	118.208	F:maj
8d	Some	8A	Some	.	.	.	.	.	.	.	.
8f	day	8c	day	.	.	.	.	.	.	.	.
8d	some-	8B-	some-	.	.	8%5B-M	.	voice	.	119.441	B-:maj/5
16f	-bo-	16c	-bo-	.	.	.	.	.	.	.	.
16f	-dy's	16c	-dy's	.	.	.	.	.	.	.	.
16d	gon-	16B-	gon-	.	.	.	.	.	.	.	.
16d	-na	16B-	-na	.	.	.	.	.	.	.	.
16f	make	16c	make	.	.	.	.	.	.	.	.
16f	you	16c	you	.	.	.	.	.	.	.	.
16f	wan-	16c	wan-	.	.	.	.	.	.	.	.
16d	-na	16A	-na	.	.	.	.	.	.	.	.
=50	=50	=50	=50	=50	=50	=50	=50	=50	=50	=50	=50
16f	turn	16c	turn	1r	.	4.CM	.	voice	.	120.674	C:maj/4
16f	a-	16c	a-	.	.	.	.	.	.	.	.
16f	-round	16c	-round	.	.	.	.	.	C	.	.
16d	and	16A	and	.	.	.	.	.	.	.	.
8f	say	8c	say	.	.	.	.	.	A	.	.
16d	good-	16A	good-	.	.	8%5FM	.	voice	.	121.907	F:maj
[16a [16cc	-bye	[16f	-bye	.	.	.	.	.	B	.	.
8a] 8cc]	_	8f]	_	.	.	.	.	.	.	.	.
8gq 8b-q	_	8eq	_	.	.	.	.	.	.	.	.
8a 8cc	_	8f	_	.	.	.	.	.	.	.	.
4r	.	4r	.	.	.	.	.	.	.	.	.
=51	=51	=51	=51	=51	=51	=51	=51	=51	=51	=51	=51
16r	.	8r	.	1r	.	4.FM	.	voice	.	123.14	F:maj
16~f	_	.	.	.	.	.	.	.	.	.	.
8cc 8ff	'Till	8a	'Till	.	.	.	.	.	.	.	.
8cc 8ff	then,	8a	then,	.	.	.	.	.	.	.	.
8f 8cc	ba-	16c	ba-	.	.	8%5B-M	.	voice	.	124.373	B-:maj/5
.	.	16d	_	.	.	.	.	.	.	.	.
8f 8cc	-by,	8d	-by,	.	.	.	.	.	.	.	.
16c	are	16F	are	.	.	.	.	.	.	.	.
16c	you	16G	you	.	.	.	.	.	.	.	.
16c	gon-	16A	gon-	.	.	.	.	.	.	.	.
16c	-na	16A	-na	.	.	.	.	.	.	.	.
16c	let	16A	let	.	.	.	.	.	.	.	.
16A	'em	16F	'em	.	.	.	.	.	.	.	.
=52	=52	=52	=52	=52	=52	=52	=52	=52	=52	=52	=52
16d	hold	16A	hold	1r	.	4.CM	.	voice	.	125.606	C:maj/4
16A	you	16A	you	.	.	.	.	.	.	.	.
16c	down	16A	down	.	.	.	.	.	C	.	.
16A	and	16F	and	.	.	.	.	.	.	.	.
8c	make	8A	make	.	.	.	.	.	A	.	.
16A	you	16F	you	.	.	8%5FM	.	voice	.	126.839	F:maj
16c	cry	16A	cry	.	.	.	.	.	B	.	.
8A	_	8F	_	.	.	.	.	.	.	.	.
8r	.	8r	.	.	.	.	.	.	.	.	.
16c	Don't	16c	Don't	.	.	.	.	.	.	.	.
16d	you	16d	you	.	.	.	.	.	.	.	.
8f	know	8f	know	.	.	.	.	.	.	.	.
=53	=53	=53	=53	=53	=53	=53	=53	=53	=53	=53	=53
*	*	*clefG2	*	*	*	*	*	*	*	*	*
8r	.	8r	.	1r	.	4.FM	newline	voice	.	128.072	F:maj
16f 16a	don't	16c	don't	.	.	.	.	.	.	.	.
16g 16b-	you	16d	you	.	.	.	.	.	.	.	.
16g 16b-	know	16d	know	.	.	.	.	.	.	.	.
16a 16cc	_	16f	_	.	.	.	.	.	.	.	.
8r	.	8r	.	.	.	8%5B-M	.	voice	.	129.288	B-:maj/5
16f 16a	things	16c	things	.	.	.	.	.	.	.	.
16g 16b-	'll	16d	'll	.	.	.	.	.	.	.	.
16g 16b-	change	16d	change	.	.	.	.	.	A	.	.
16a 16cc	_	16f	_	.	.	.	.	.	.	.	.
4r	.	4r	.	.	.	.	.	.	.	.	.
=54	=54	=54	=54	=54	=54	=54	=54	=54	=54	=54	=54
16f 16a	things	16c	things	1r	.	4.CM	.	voice	.	130.505	C:maj/4
16g 16b-	'll	16d	'll	.	.	.	.	.	.	.	.
16a 16cc	go	16f	go	.	.	.	.	.	.	.	.
16a 16cc	y-	16f	y-	.	.	.	.	.	.	.	.
8a 8cc	-your	8f	-your	.	.	.	.	.	.	.	.
8a 8cc	way	8f	way?	.	.	8%5FM	.	voice	A	131.722	F:maj
8r	.	2r	.	.	.	.	.	.	.	.	.
16f	Can	.	.	.	.	.	.	.	.	.	.
16f	you	.	.	.	.	.	.	.	.	.	.
8b-q	_	.	.	.	.	.	.	.	.	.	.
[4cc	hold	.	.	.	.	.	.	.	.	.	.
=55	=55	=55	=55	=55	=55	=55	=55	=55	=55	=55	=55
8cc]	_	1r	.	1r	.	4.B-M	.	voice	.	132.938	B-:maj
8f	_	.	.	.	.	.	.	.	.	.	.
8f	_	.	.	.	.	.	.	.	.	.	.
8f	on	.	.	.	.	8%5FM	.	voice	.	134.155	F:maj/3
8c	_	.	.	.	.	.	.	.	.	.	.
8r	.	.	.	.	.	.	.	.	.	.	.
8f	for	.	.	.	.	.	.	.	.	.	.
8f	one	.	.	.	.	.	.	.	.	.	.
=56	=56	=56	=56	=56	=56	=56	=56	=56	=56	=56	=56
8f	more	2r	.	1r	.	4.Gmm	.	voice	.	135.372	G:min7
8cq	_	.	.	.	.	.	.	.	.	.	.
8d	day	.	.	.	.	.	.	.	A	.	.
4c	_	.	.	.	.	.	.	.	.	.	.
.	.	.	.	.	.	8%5CM	.	voice	.	136.588	C:sus4
8r	.	8r	.	.	.	.	.	.	.	.	.
16c	Can	16c	Can	.	.	.	.	.	.	.	.
16c	you	16c	you	.	.	.	.	.	.	.	.
[4g	hold	[4b-	hold	.	.	.	.	.	.	.	.
=57	=57	=57	=57	=57	=57	=57	=57	=57	=57	=57	=57
8g]	_	8b-]	_	1r	.	4.B-M	newline	voice	.	137.805	B-:maj
24g	_	24b-	_	.	.	.	.	.	.	.	.
24a-	_	24cc	_	.	.	.	.	.	.	.	.
[24g	_	24b-	_	.	.	.	.	.	.	.	.
8g]	_	8a	_	.	.	.	.	.	.	.	.
8f	on	8a	on	.	.	8%5FM	.	voice	.	139.04	F:maj/3
8cq	_	8fq	_	.	.	.	.	.	.	.	.
8d	_	8g	_	.	.	.	.	.	.	.	.
8c	_	8f	_	.	.	.	.	.	.	.	.
8c	for	8f	for	.	.	.	.	.	.	.	.
8c	one	8f	one	.	.	.	.	.	.	.	.
=58	=58	=58	=58	=58	=58	=58	=58	=58	=58	=58	=58
8f	more	8b-	more	1r	.	1Gmm	.	voice	.	140.276	G:min7
4f	day	4b-	day	.	.	.	.	.	A	.	.
8r	.	8r	.	.	.	.	.	.	.	.	.
8f	Things	2r	.	.	.	.	.	.	.	.	.
16d	'll	.	.	.	.	.	.	.	.	.	.
[16f	go	.	.	.	.	.	.	.	.	.	.
16f]	_	.	.	.	.	.	.	.	.	.	.
16f	your	.	.	.	.	.	.	.	.	.	.
8d	way	.	.	.	.	.	.	.	A	.	.
=59	=59	=59	=59	=59	=59	=59	=59	=59	=59	=59	=59
[2c	_	4f	Oh,	1r	.	1CM	.	voice	.	142.747	C:sus4(b7)
.	.	8f	things	.	.	.	.	.	.	.	.
.	.	8f	will	.	.	.	.	.	.	.	.
8c]	_	4f	go	.	.	.	.	.	.	.	.
8d	_	.	.	.	.	.	.	.	.	.	.
4r	.	8f	your	.	.	.	.	.	.	.	.
.	.	[8f	way	.	.	.	.	.	A	.	.
=60	=60	=60	=60	=60	=60	=60	=60	=60	=60	=60	=60
8r	.	4.f]	_	1r	.	1CM	.	voice	.	145.218	C:maj
8aq	_	.	.	.	.	.	.	.	.	.	.
8b-	_	.	.	.	.	.	.	.	.	.	.
8a	on	.	.	.	.	.	.	.	.	.	.
8f	for	8r	.	.	.	.	.	.	.	.	.
8f	one	2r	.	.	.	.	.	.	.	.	.
8c	more	.	.	.	.	.	.	.	.	.	.
8B-q	_	.	.	.	.	.	.	.	.	.	.
16c	day!	.	.	.	.	.	.	.	A	.	.
16B-	_	.	.	.	.	.	.	.	.	.	.
8A	_	.	.	.	.	.	.	.	.	.	.
=61	=61	=61	=61	=61	=61	=61	=61	=61	=61	=61	=61
*>Letter>E	*>Letter>E	*>Letter>E	*>Letter>E	*>Letter>E	*>Letter>E	*>Letter>E	*>Letter>E	*>Letter>E	*>Letter>E	*>Letter>E	*>Letter>E
*>Label>Bridge	*>Label>Bridge	*>Label>Bridge	*>Label>Bridge	*>Label>Bridge	*>Label>Bridge	*>Label>Bridge	*>Label>Bridge	*>Label>Bridge	*>Label>Bridge	*>Label>Bridge	*>Label>Bridge
8r	.	1r	.	1r	.	4.FM	newline	voice	.	147.689	F:maj
8d	I	.	.	.	.	.	.	.	.	.	.
8f	know	.	.	.	.	.	.	.	.	.	.
16d	that	.	.	.	.	2CM	.	voice	.	148.916	C:maj/4
[16f	there	.	.	.	.	.	.	.	.	.	.
16f]	_	.	.	.	.	.	.	.	.	.	.
16d	is	.	.	.	.	.	.	.	.	.	.
[8c	pain,	.	.	.	.	.	.	.	A	.	.
8c]	_	.	.	.	.	.	.	.	.	.	.
16c	but	.	.	.	.	8B-M	.	voice	.	.	B-:maj/5
16c	you	.	.	.	.	.	.	.	.	.	.
=62	=62	=62	=62	=62	=62	=62	=62	=62	=62	=62	=62
8r	.	1r	.	1r	.	2.B-M	.	voice	.	150.144	B-:maj/5
16c	hold	.	.	.	.	.	.	.	.	.	.
16d	_	.	.	.	.	.	.	.	.	.	.
8f	on	.	.	.	.	.	.	.	.	.	.
16d	for	.	.	.	.	.	.	.	.	.	.
[16f	one	.	.	.	.	.	.	.	.	.	.
16f]	_	.	.	.	.	.	.	.	.	.	.
16d	more	.	.	.	.	.	.	.	.	.	.
[8c	day,	.	.	.	.	.	.	.	A	.	.
8c]	_	.	.	.	.	4CM	.	voice	.	151.985	C:maj/4
16c	and	.	.	.	.	.	.	.	.	.	.
16c	you	.	.	.	.	.	.	.	.	.	.
=63	=63	=63	=63	=63	=63	=63	=63	=63	=63	=63	=63
*clefG2	*	*	*	*	*	*	*	*	*	*	*
8r	.	8r	.	1r	.	4.FM	.	voice	.	152.599	F:maj
8a	break	8f	break	.	.	.	.	.	.	.	.
8.g	free	8.e	free	.	.	.	.	.	.	.	.
.	.	.	.	.	.	2CM	.	voice	.	153.827	C:maj/4
[16e	from	[16c	from	.	.	.	.	.	.	.	.
16e]	_	16c]	_	.	.	.	.	.	.	.	.
16e	the	16c	the	.	.	.	.	.	.	.	.
[8e	chains	[8c	chains	.	.	.	.	.	A	.	.
8e]	_	8c]	_	.	.	.	.	.	.	.	.
[8d	_	[8B-	_	.	.	8B-M	.	voice	.	.	B-:maj/5
=64	=64	=64	=64	=64	=64	=64	=64	=64	=64	=64	=64
2.d]	_	2.B-]	_	1r	.	1B-M	.	voice	.	155.054	B-:maj/5
4r	.	4r	.	.	.	.	.	.	.	.	.
=65	=65	=65	=65	=65	=65	=65	=65	=65	=65	=65	=65
16r	.	1r	.	1r	.	4.FM	newline	voice	.	157.509	F:maj
16c	Yeah,	.	.	.	.	.	.	.	.	.	.
8cc	I	.	.	.	.	.	.	.	.	.	.
8g	know	.	.	.	.	.	.	.	.	.	.
16g	that	.	.	.	.	2CM	.	voice	.	158.739	C:maj/4
[16g	there	.	.	.	.	.	.	.	.	.	.
16g]	_	.	.	.	.	.	.	.	.	.	.
16f	is	.	.	.	.	.	.	.	.	.	.
[8f	pain,	.	.	.	.	.	.	.	A	.	.
8f]	_	.	.	.	.	.	.	.	.	.	.
16d	but	.	.	.	.	8B-M	.	voice	.	.	B-:maj/5
16~F	you	.	.	.	.	.	.	.	.	.	.
=66	=66	=66	=66	=66	=66	=66	=66	=66	=66	=66	=66
8r	.	1r	.	1r	.	2.B-M	.	voice	.	159.969	B-:maj/5
16c	hold	.	.	.	.	.	.	.	.	.	.
16d	_	.	.	.	.	.	.	.	.	.	.
8f	on	.	.	.	.	.	.	.	.	.	.
16d	for	.	.	.	.	.	.	.	.	.	.
[16f	one	.	.	.	.	.	.	.	.	.	.
16f]	_	.	.	.	.	.	.	.	.	.	.
16d	more	.	.	.	.	.	.	.	.	.	.
8fq	_	.	.	.	.	.	.	.	.	.	.
[8g	day,	.	.	.	.	.	.	.	A	.	.
8g]	_	.	.	.	.	4CM	.	voice	.	161.813	C:maj/4
16g	and	.	.	.	.	.	.	.	.	.	.
16g	you	.	.	.	.	.	.	.	.	.	.
=67	=67	=67	=67	=67	=67	=67	=67	=67	=67	=67	=67
8r	.	1r	.	1r	.	4.FM	.	voice	.	162.428	F:maj
8cc	break	.	.	.	.	.	.	.	.	.	.
16g	free,	.	.	.	.	.	.	.	.	.	.
16a	_	.	.	.	.	.	.	.	.	.	.
8cc	break	.	.	.	.	2CM	.	voice	.	163.658	C:maj/4
8g	from	.	.	.	.	.	.	.	.	.	.
16g	the	.	.	.	.	.	.	.	.	.	.
[16g	chains	.	.	.	.	.	.	.	A	.	.
8g]	_	.	.	.	.	.	.	.	.	.	.
[8f	_	.	.	.	.	8B-M	.	voice	.	.	B-:maj/5
=68	=68	=68	=68	=68	=68	=68	=68	=68	=68	=68	=68
8.f]	_	1r	.	1r	.	1B-M	.	voice	.	164.887	B-:maj/5
16r	.	.	.	.	.	.	.	.	.	.	.
4r	.	.	.	.	.	.	.	.	.	.	.
2r	.	.	.	.	.	.	.	.	.	.	.
=69	=69	=69	=69	=69	=69	=69	=69	=69	=69	=69	=69
*>Letter>F	*>Letter>F	*>Letter>F	*>Letter>F	*>Letter>F	*>Letter>F	*>Letter>F	*>Letter>F	*>Letter>F	*>Letter>F	*>Letter>F	*>Letter>F
*>Label>Outro	*>Label>Outro	*>Label>Outro	*>Label>Outro	*>Label>Outro	*>Label>Outro	*>Label>Outro	*>Label>Outro	*>Label>Outro	*>Label>Outro	*>Label>Outro	*>Label>Outro
8r	.	8r	.	1r	.	4.FM	newline	voice	.	167.347	N.C.
8d 8g	Some	8A	Some	.	.	.	.	.	.	.	.
8f 8a	day	8c	day	.	.	.	.	.	.	.	.
8d 8g	some-	8B-	some-	.	.	8%5B-M	.	voice	.	169.808	N.C.
16f 16a	-bo-	16c	-bo-	.	.	.	.	.	.	.	.
16f 16a	-dy's	16c	-dy's	.	.	.	.	.	.	.	.
16d 16g	gon-	16B-	gon-	.	.	.	.	.	.	.	.
16d 16g	-na	16B-	-na	.	.	.	.	.	.	.	.
16f 16a	make	16c	make	.	.	.	.	.	.	.	.
16f 16a	you	16c	you	.	.	.	.	.	.	.	.
16f 16a	wan-	16c	wan-	.	.	.	.	.	.	.	.
16d 16g	-na	16A	-na	.	.	.	.	.	.	.	.
=70	=70	=70	=70	=70	=70	=70	=70	=70	=70	=70	=70
16f 16a	turn	16c	turn	1r	.	4.CM	.	voice	.	172.269	N.C.
16f 16a	a-	16c	a-	.	.	.	.	.	.	.	.
16f 16a	-round	16c	-round	.	.	.	.	.	C	.	.
16d 16g	and	16A	and	.	.	.	.	.	.	.	.
8f 8a	say	8c	say	.	.	.	.	.	A	.	.
16d 16g	good-	16A	good-	.	.	8%5FM	.	voice	.	174.73	N.C.
[16a [16cc	-bye	[16f	-bye	.	.	.	.	.	B	.	.
8a] 8cc]	_	8f]	_	.	.	.	.	.	.	.	.
8gq 8b-q	_	8eq	_	.	.	.	.	.	.	.	.
8a 8cc	_	8f	_	.	.	.	.	.	.	.	.
4r	.	8f	(Say,	.	.	.	.	.	.	.	.
.	.	16d	good-	.	.	.	.	.	.	.	.
.	.	[16a	-bye	.	.	.	.	.	B	.	.
=71	=71	=71	=71	=71	=71	=71	=71	=71	=71	=71	=71
16r	.	8a]	_	8r	.	4.FM	newline	voice	.	.	N.C.
16~f	_	.	.	.	.	.	.	.	.	.	.
.	.	8gq	_	.	.	.	.	.	.	.	.
16b- 16dd	'Till	8a	_	16g	'Till	.	.	.	.	.	.
16cc 16ff	_	.	.	16a	_	.	.	.	.	.	.
8cc 8ff	then,	4r	.	8a	then,	.	.	.	.	.	.
8f 8a	ba-	.	.	16c	ba-	8%5B-M	.	voice	.	.	N.C.
.	.	.	.	16d	_	.	.	.	.	.	.
8f 8b-	-by,	2r	.	8d	-by,	.	.	.	.	.	.
*	*	*	*	*clefF4	*	*	*	*	*	*	*
16c	are	.	.	16F	are	.	.	.	.	.	.
16c	you	.	.	16G	you	.	.	.	.	.	.
16c	gon-	.	.	16A	gon-	.	.	.	.	.	.
16c	-na	.	.	16A	-na	.	.	.	.	.	.
16c	let	.	.	16A	let	.	.	.	.	.	.
16A	'em	.	.	16F	'em	.	.	.	.	.	.
=72	=72	=72	=72	=72	=72	=72	=72	=72	=72	=72	=72
16d	hold	2r	.	16A	hold	4.CM	.	voice	.	.	N.C.
16A	you	.	.	16A	you	.	.	.	.	.	.
16c	down	.	.	16A	down	.	.	.	C	.	.
16A	and	.	.	16F	and	.	.	.	.	.	.
8c	make	.	.	8A	make	.	.	.	A	.	.
16A	you	.	.	16F	you	8%5FM	.	voice	.	.	N.C.
16c	cry	.	.	16A	cry	.	.	.	B	.	.
8A	_	4r	.	8F	_	.	.	.	.	.	.
8r	.	.	.	8r	.	.	.	.	.	.	.
16c	Don't	16c	Don't	8r	.	.	.	.	.	.	.
16d	you	16d	you	.	.	.	.	.	.	.	.
8f	know	8f	know	8r	.	.	.	.	.	.	.
=73	=73	=73	=73	=73	=73	=73	=73	=73	=73	=73	=73
.	.	8cq	_	.	.	.	.	.	.	.	.
8r	.	8d	_	8r	.	4.FM	newline	voice	.	177.191	F:1
16f 16a	don't	8r	.	16c	don't	.	.	.	.	.	.
16g 16b-	you	.	.	16d	you	.	.	.	.	.	.
16g 16b-	know	8r	.	16d	know	.	.	.	.	.	.
16a 16cc	_	.	.	16f	_	.	.	.	.	.	.
8r	.	8f	Know!	8r	.	8%5B-M	.	voice	.	179.648	F:1
16f 16a	things	4r	.	16c	things	.	.	.	.	.	.
16g 16b-	'll	.	.	16d	'll	.	.	.	.	.	.
16g 16b-	change	.	.	16d	change	.	.	.	A	.	.
16a 16cc	_	.	.	16f	_	.	.	.	.	.	.
.	.	8gq	_	.	.	.	.	.	.	.	.
4r	.	8a	Know!	4r	.	.	.	.	.	.	.
.	.	8r	.	.	.	.	.	.	.	.	.
=74	=74	=74	=74	=74	=74	=74	=74	=74	=74	=74	=74
16f 16a	things	1r	.	16c	things	4.CM	.	voice	.	182.104	F:1
16g 16b-	'll	.	.	16d	'll	.	.	.	.	.	.
16a 16cc	go	.	.	16f	go	.	.	.	.	.	.
16a 16cc	y-	.	.	16f	y-	.	.	.	.	.	.
8a 8cc	-your	.	.	8f	-your	.	.	.	.	.	.
8a 8cc	way	.	.	8f	way	8%5FM	.	voice	A	183.332	F:1
8r	.	.	.	2r	.	.	.	.	.	.	.
16f	Can	.	.	.	.	.	.	.	.	.	.
16f	you	.	.	.	.	.	.	.	.	.	.
8b-q	_	.	.	.	.	.	.	.	.	.	.
[4cc	hold	.	.	.	.	.	.	.	.	.	.
=75	=75	=75	=75	=75	=75	=75	=75	=75	=75	=75	=75
8cc]	_	1r	.	1r	.	4.B-M	.	voice	.	184.56	B-:maj
8f	_	.	.	.	.	.	.	.	.	.	.
8f	_	.	.	.	.	.	.	.	.	.	.
8f	on	.	.	.	.	8%5FM	.	voice	.	185.789	F:maj/3
8c	_	.	.	.	.	.	.	.	.	.	.
8r	.	.	.	.	.	.	.	.	.	.	.
8cc	for	.	.	.	.	.	.	.	.	.	.
8cc	one	.	.	.	.	.	.	.	.	.	.
=76	=76	=76	=76	=76	=76	=76	=76	=76	=76	=76	=76
8g	more	4r	.	1r	.	2Gmm	.	voice	.	.	G:min7
8aq	_	.	.	.	.	.	.	.	.	.	.
8g	day	.	.	.	.	.	.	.	A	.	.
4f	_	8r	.	.	.	.	.	.	.	.	.
.	.	16g	Yeah	.	.	.	.	.	.	.	.
.	.	16a	_	.	.	.	.	.	.	.	.
8r	.	8r	.	.	.	2CM	.	voice	.	.	C:sus4
16c	Can	16c	Can	.	.	.	.	.	.	.	.
16c	you	16c	you	.	.	.	.	.	.	.	.
8g	hold	8d	hold	.	.	.	.	.	.	.	.
8fq	_	8cq	_	.	.	.	.	.	.	.	.
[8g	_	[8d	_	.	.	.	.	.	.	.	.
=77	=77	=77	=77	=77	=77	=77	=77	=77	=77	=77	=77
8g]	_	8d]	_	1r	.	4.FM	newline	voice	.	187.017	F:maj
16a	_	16f	_	.	.	.	.	.	.	.	.
16g	_	16d	_	.	.	.	.	.	.	.	.
8f	_	8c	_	.	.	.	.	.	.	.	.
[8f	on	[8c	on	.	.	8%5B-M	.	voice	.	188.242	B-:maj/5
2f_	_	2c_	_	.	.	.	.	.	.	.	.
=78	=78	=78	=78	=78	=78	=78	=78	=78	=78	=78	=78
1f_	_	1f	_	1r	.	4.CM	.	voice	.	189.467	C:maj/4
.	.	.	.	.	.	8%5FM	.	voice	.	190.692	F:maj
=79	=79	=79	=79	=79	=79	=79	=79	=79	=79	=79	=79
4f_	_	1r	.	1r	.	4.FM	.	voice	.	191.918	F:maj
16f]	_	.	.	.	.	.	.	.	.	.	.
8r	.	.	.	.	.	.	.	.	.	.	.
.	.	.	.	.	.	8%5B-M	.	voice	.	193.143	B-:maj/5
16r	.	.	.	.	.	.	.	.	.	.	.
2r	.	.	.	.	.	.	.	.	.	.	.
=80	=80	=80	=80	=80	=80	=80	=80	=80	=80	=80	=80
1r	.	1r	.	1r	.	4.CM	.	voice	.	194.368	C:maj/4
.	.	.	.	.	.	8%5FM	.	voice	.	195.593	F:maj
=81	=81	=81	=81	=81	=81	=81	=81	=81	=81	=81	=81
8r	.	8r	.	1r	.	4.FM	newline	voice	.	196.818	F:maj
16f 16a	don't	16c]	don't	.	.	.	.	.	.	.	.
16g 16b-	you	16d	you	.	.	.	.	.	.	.	.
16g 16b-	know	16d	know	.	.	.	.	.	.	.	.
16a 16cc	_	16f	_	.	.	.	.	.	.	.	.
8r	.	8r	.	.	.	8%5B-M	.	voice	.	198.041	B-:maj/5
16f 16a	things	16c	things	.	.	.	.	.	.	.	.
16g 16b-	'll	16d	'll	.	.	.	.	.	.	.	.
16g 16b-	change	16d	change	.	.	.	.	.	A	.	.
16a 16cc	_	16f	_	.	.	.	.	.	.	.	.
4r	.	4r	.	.	.	.	.	.	.	.	.
=82	=82	=82	=82	=82	=82	=82	=82	=82	=82	=82	=82
16f 16a	things	16c	things	1r	.	4.CM	.	voice	.	199.263	C:maj/4
16g 16b-	'll	16d	'll	.	.	.	.	.	.	.	.
16a 16cc	go	16f	go	.	.	.	.	.	.	.	.
16a 16cc	y-	16f	y-	.	.	.	.	.	.	.	.
8a 8cc	-your	8f	-your	.	.	.	.	.	.	.	.
8a 8cc	way	8f	way	.	.	8%5FM	.	voice	A	200.486	F:maj
8r	.	2r	.	.	.	.	.	.	.	.	.
16f	Can	.	.	.	.	.	.	.	.	.	.
16f	you	.	.	.	.	.	.	.	.	.	.
8b-q	_	.	.	.	.	.	.	.	.	.	.
[4cc	hold	.	.	.	.	.	.	.	.	.	.
=83	=83	=83	=83	=83	=83	=83	=83	=83	=83	=83	=83
8cc]	_	1r	.	1r	.	4.B-M	.	voice	.	201.708	B-:maj
8f	_	.	.	.	.	.	.	.	.	.	.
8f	_	.	.	.	.	.	.	.	.	.	.
8f	on	.	.	.	.	8%5FM	.	voice	.	202.93	F:maj/3
8c	_	.	.	.	.	.	.	.	.	.	.
8r	.	.	.	.	.	.	.	.	.	.	.
8cc	for	.	.	.	.	.	.	.	.	.	.
8cc	one	.	.	.	.	.	.	.	.	.	.
=84	=84	=84	=84	=84	=84	=84	=84	=84	=84	=84	=84
8g	more	2r	.	1r	.	2Gmm	.	voice	.	204.153	G:min7
8aq	_	.	.	.	.	.	.	.	.	.	.
8g	day	.	.	.	.	.	.	.	A	.	.
4f	_	.	.	.	.	.	.	.	.	.	.
8r	.	8r	.	.	.	2CM	.	voice	.	205.375	C:sus4
16c	Can	16c	Can	.	.	.	.	.	.	.	.
16c	you	16c	you	.	.	.	.	.	.	.	.
8g 8b-	hold	8d	hold	.	.	.	.	.	.	.	.
[8g [8b-	_	[8d	_	.	.	.	.	.	.	.	.
=85	=85	=85	=85	=85	=85	=85	=85	=85	=85	=85	=85
8g] 8b-]	_	8d]	_	1r	.	4.FM	newline	fadeout voice	.	206.598	F:maj
8gq 8b-q	_	8dq	_	.	.	.	.	.	.	.	.
16a 16cc	_	16f	_	.	.	.	.	.	.	.	.
16g 16b-	_	16d	_	.	.	.	.	.	.	.	.
8f 8a	_	8c	_	.	.	.	.	.	.	.	.
[8f [8a	on	[8c	on	.	.	8%5B-M	.	fadeout voice	.	207.809	B-:maj/5
8f] 8a]	_	8c]	_	.	.	.	.	.	.	.	.
8r	.	8r	.	.	.	.	.	.	.	.	.
4r	.	4r	.	.	.	.	.	.	.	.	.
=86	=86	=86	=86	=86	=86	=86	=86	=86	=86	=86	=86
2r	.	2r	.	1r	.	4.CM	.	fadeout voice	.	209.02	C:sus4/4
.	.	.	.	.	.	8%5FM	.	fadeout voice	.	210.232	F:maj
8r	.	8r	.	.	.	.	.	.	.	.	.
16c	Can	16c	Can	.	.	.	.	.	.	.	.
16c	you	16c	you	.	.	.	.	.	.	.	.
8f	hold	8c	hold	.	.	.	.	.	.	.	.
8cq	_	8Aq	_	.	.	.	.	.	.	.	.
8d	on	8B-	on	.	.	.	.	.	.	.	.
=87	=87	=87	=87	=87	=87	=87	=87	=87	=87	=87	=87
8.c	_	8.A	_	1r	.	4.FM	.	fadeout voice	.	211.443	F:maj
16r	.	16r	.	.	.	.	.	.	.	.	.
4r	.	4r	.	.	.	.	.	.	.	.	.
.	.	.	.	.	.	8%5B-M	.	fadeout voice	.	212.654	B-:maj/5
2r	.	2r	.	.	.	.	.	.	.	.	.
=88	=88	=88	=88	=88	=88	=88	=88	=88	=88	=88	=88
8r	.	8r	.	1r	.	4.CM	.	fadeout voice	.	213.866	C:sus4/4
16g	Mmm,	16B- 16e	Mmm,	.	.	.	.	.	.	.	.
[16a	_	[16c [16f	_	.	.	.	.	.	.	.	.
4a_	_	4c_ 4f]	_	.	.	.	.	.	.	.	.
.	.	.	.	.	.	8%5FM	.	fadeout voice	.	215.077	F:maj
8a]	_	8c] 8f	_	.	.	.	.	.	.	.	.
16f	can	16B- 16f	can	.	.	.	.	.	.	.	.
16f	you	16B- 16f	you	.	.	.	.	.	.	.	.
8dd	hold	8f 8b-	hold	.	.	.	.	.	.	.	.
8cc	on,	8f 8a	on,	.	.	.	.	.	.	.	.
=89	=89	=89	=89	=89	=89	=89	=89	=89	=89	=89	=89
8aq	_	8cq 8fq	_	.	.	.	.	.	.	.	.
8b-	ba-	8d 8g	ba-	1r	.	4.FM	.	fadeout voice	.	215.985	F:maj
[8a	-by	[8c [8f	-by	.	.	.	.	.	.	.	.
8a]	_	8c] 8f]	_	.	.	.	.	.	.	.	.
8r	.	8r	.	.	.	8%5B-M	.	fadeout voice	.	216.288	B-:maj/5
2r	.	2r	.	.	.	.	.	.	.	.	.
r;	.	r;	.	r;	.	1r;	.	r	.	218.105	N.C.
r;	.	r;	.	r;	.	1r;	.	r	.	221.362	N.C.
*-	*-	*-	*-	*-	*-	*-	*-	*-	*-	*-	*-
!!!BillboardChartDate: 1990/04/14, 1990/03/31, 1990/05/26
!!!BillboardPeak: 1, 1, 1
!!!BillboardWeeksOnChart: 25, 25, 25
!!!COC: Wilson Phillips
!!!ENC: Nathaniel Condit-Schultz
!!!EST: Awating manual error checking and editing.
!!!OTL: Hold On
!!!RDF**chordsym: original McGill chord annotation + (implied pitch class set, with bass pitch in first position)
!!!RDF**harmony: **recip + pitch class of root + harmonic quality
!!!RDF**leadinstrument: original McGill primary instrumentation annotation
!!!RDF**phrase: newline = linebreak in original McGill transcription
!!!RDF**timestamp: McGill audio timestamp in seconds
!!!RDT: 2017/01/12/
!!!SampleActualRank: 25, 43,  4
!!!SampleID#: 385, 628, 911
!!!SampleTargetRank: 23, 44,  4
